X:2
T:Boolavogue
Z: id:dc-waltz-2
M:3/4
L:1/8
K:G Major
D2|G4 D2|G4 Bd|g4 f2|eg3 e2|d4 e2|B4 AG|A3 B AG|E4 D2|!
G4 D2|G4 Bd|g4 f2|eg3 e2|d4 e2|B4 AG|A3 B AF|G4|]!
B2|d4 B2|d4 ef|g4 f2|eg3 e2|d4 e2|B4 AG|A3 B AG|E4 D2|!
G4 D2|G4 Bd|g4 f2|eg3 e2|d4 e2|B4 AG|A3 B AF|G4|]!

